/* XPM */
static const char *board_xpm[] = {
"64 64 2 1",
"a c #EEEED2",
"b c #769656",
"aaaaaaaabbbbbbbbaaaaaaaabbbbbbbbaaaaaaaabbbbbbbbaaaaaaaabbbbbbbb",
"aaaaaaaabbbbbbbbaaaaaaaabbbbbbbbaaaaaaaabbbbbbbbaaaaaaaabbbbbbbb",
"aaaaaaaabbbbbbbbaaaaaaaabbbbbbbbaaaaaaaabbbbbbbbaaaaaaaabbbbbbbb",
"aaaaaaaabbbbbbbbaaaaaaaabbbbbbbbaaaaaaaabbbbbbbbaaaaaaaabbbbbbbb",
"aaaaaaaabbbbbbbbaaaaaaaabbbbbbbbaaaaaaaabbbbbbbbaaaaaaaabbbbbbbb",
"aaaaaaaabbbbbbbbaaaaaaaabbbbbbbbaaaaaaaabbbbbbbbaaaaaaaabbbbbbbb",
"aaaaaaaabbbbbbbbaaaaaaaabbbbbbbbaaaaaaaabbbbbbbbaaaaaaaabbbbbbbb",
"aaaaaaaabbbbbbbbaaaaaaaabbbbbbbbaaaaaaaabbbbbbbbaaaaaaaabbbbbbbb",
"bbbbbbbbaaaaaaaabbbbbbbbaaaaaaaabbbbbbbbaaaaaaaabbbbbbbbaaaaaaaa",
"bbbbbbbbaaaaaaaabbbbbbbbaaaaaaaabbbbbbbbaaaaaaaabbbbbbbbaaaaaaaa",
"bbbbbbbbaaaaaaaabbbbbbbbaaaaaaaabbbbbbbbaaaaaaaabbbbbbbbaaaaaaaa",
"bbbbbbbbaaaaaaaabbbbbbbbaaaaaaaabbbbbbbbaaaaaaaabbbbbbbbaaaaaaaa",
"bbbbbbbbaaaaaaaabbbbbbbbaaaaaaaabbbbbbbbaaaaaaaabbbbbbbbaaaaaaaa",
"bbbbbbbbaaaaaaaabbbbbbbbaaaaaaaabbbbbbbbaaaaaaaabbbbbbbbaaaaaaaa",
"bbbbbbbbaaaaaaaabbbbbbbbaaaaaaaabbbbbbbbaaaaaaaabbbbbbbbaaaaaaaa",
"bbbbbbbbaaaaaaaabbbbbbbbaaaaaaaabbbbbbbbaaaaaaaabbbbbbbbaaaaaaaa",
"aaaaaaaabbbbbbbbaaaaaaaabbbbbbbbaaaaaaaabbbbbbbbaaaaaaaabbbbbbbb",
"aaaaaaaabbbbbbbbaaaaaaaabbbbbbbbaaaaaaaabbbbbbbbaaaaaaaabbbbbbbb",
"aaaaaaaabbbbbbbbaaaaaaaabbbbbbbbaaaaaaaabbbbbbbbaaaaaaaabbbbbbbb",
"aaaaaaaabbbbbbbbaaaaaaaabbbbbbbbaaaaaaaabbbbbbbbaaaaaaaabbbbbbbb",
"aaaaaaaabbbbbbbbaaaaaaaabbbbbbbbaaaaaaaabbbbbbbbaaaaaaaabbbbbbbb",
"aaaaaaaabbbbbbbbaaaaaaaabbbbbbbbaaaaaaaabbbbbbbbaaaaaaaabbbbbbbb",
"aaaaaaaabbbbbbbbaaaaaaaabbbbbbbbaaaaaaaabbbbbbbbaaaaaaaabbbbbbbb",
"aaaaaaaabbbbbbbbaaaaaaaabbbbbbbbaaaaaaaabbbbbbbbaaaaaaaabbbbbbbb",
"bbbbbbbbaaaaaaaabbbbbbbbaaaaaaaabbbbbbbbaaaaaaaabbbbbbbbaaaaaaaa",
"bbbbbbbbaaaaaaaabbbbbbbbaaaaaaaabbbbbbbbaaaaaaaabbbbbbbbaaaaaaaa",
"bbbbbbbbaaaaaaaabbbbbbbbaaaaaaaabbbbbbbbaaaaaaaabbbbbbbbaaaaaaaa",
"bbbbbbbbaaaaaaaabbbbbbbbaaaaaaaabbbbbbbbaaaaaaaabbbbbbbbaaaaaaaa",
"bbbbbbbbaaaaaaaabbbbbbbbaaaaaaaabbbbbbbbaaaaaaaabbbbbbbbaaaaaaaa",
"bbbbbbbbaaaaaaaabbbbbbbbaaaaaaaabbbbbbbbaaaaaaaabbbbbbbbaaaaaaaa",
"bbbbbbbbaaaaaaaabbbbbbbbaaaaaaaabbbbbbbbaaaaaaaabbbbbbbbaaaaaaaa",
"bbbbbbbbaaaaaaaabbbbbbbbaaaaaaaabbbbbbbbaaaaaaaabbbbbbbbaaaaaaaa",
"aaaaaaaabbbbbbbbaaaaaaaabbbbbbbbaaaaaaaabbbbbbbbaaaaaaaabbbbbbbb",
"aaaaaaaabbbbbbbbaaaaaaaabbbbbbbbaaaaaaaabbbbbbbbaaaaaaaabbbbbbbb",
"aaaaaaaabbbbbbbbaaaaaaaabbbbbbbbaaaaaaaabbbbbbbbaaaaaaaabbbbbbbb",
"aaaaaaaabbbbbbbbaaaaaaaabbbbbbbbaaaaaaaabbbbbbbbaaaaaaaabbbbbbbb",
"aaaaaaaabbbbbbbbaaaaaaaabbbbbbbbaaaaaaaabbbbbbbbaaaaaaaabbbbbbbb",
"aaaaaaaabbbbbbbbaaaaaaaabbbbbbbbaaaaaaaabbbbbbbbaaaaaaaabbbbbbbb",
"aaaaaaaabbbbbbbbaaaaaaaabbbbbbbbaaaaaaaabbbbbbbbaaaaaaaabbbbbbbb",
"aaaaaaaabbbbbbbbaaaaaaaabbbbbbbbaaaaaaaabbbbbbbbaaaaaaaabbbbbbbb",
"bbbbbbbbaaaaaaaabbbbbbbbaaaaaaaabbbbbbbbaaaaaaaabbbbbbbbaaaaaaaa",
"bbbbbbbbaaaaaaaabbbbbbbbaaaaaaaabbbbbbbbaaaaaaaabbbbbbbbaaaaaaaa",
"bbbbbbbbaaaaaaaabbbbbbbbaaaaaaaabbbbbbbbaaaaaaaabbbbbbbbaaaaaaaa",
"bbbbbbbbaaaaaaaabbbbbbbbaaaaaaaabbbbbbbbaaaaaaaabbbbbbbbaaaaaaaa",
"bbbbbbbbaaaaaaaabbbbbbbbaaaaaaaabbbbbbbbaaaaaaaabbbbbbbbaaaaaaaa",
"bbbbbbbbaaaaaaaabbbbbbbbaaaaaaaabbbbbbbbaaaaaaaabbbbbbbbaaaaaaaa",
"bbbbbbbbaaaaaaaabbbbbbbbaaaaaaaabbbbbbbbaaaaaaaabbbbbbbbaaaaaaaa",
"bbbbbbbbaaaaaaaabbbbbbbbaaaaaaaabbbbbbbbaaaaaaaabbbbbbbbaaaaaaaa",
"aaaaaaaabbbbbbbbaaaaaaaabbbbbbbbaaaaaaaabbbbbbbbaaaaaaaabbbbbbbb",
"aaaaaaaabbbbbbbbaaaaaaaabbbbbbbbaaaaaaaabbbbbbbbaaaaaaaabbbbbbbb",
"aaaaaaaabbbbbbbbaaaaaaaabbbbbbbbaaaaaaaabbbbbbbbaaaaaaaabbbbbbbb",
"aaaaaaaabbbbbbbbaaaaaaaabbbbbbbbaaaaaaaabbbbbbbbaaaaaaaabbbbbbbb",
"aaaaaaaabbbbbbbbaaaaaaaabbbbbbbbaaaaaaaabbbbbbbbaaaaaaaabbbbbbbb",
"aaaaaaaabbbbbbbbaaaaaaaabbbbbbbbaaaaaaaabbbbbbbbaaaaaaaabbbbbbbb",
"aaaaaaaabbbbbbbbaaaaaaaabbbbbbbbaaaaaaaabbbbbbbbaaaaaaaabbbbbbbb",
"aaaaaaaabbbbbbbbaaaaaaaabbbbbbbbaaaaaaaabbbbbbbbaaaaaaaabbbbbbbb",
"bbbbbbbbaaaaaaaabbbbbbbbaaaaaaaabbbbbbbbaaaaaaaabbbbbbbbaaaaaaaa",
"bbbbbbbbaaaaaaaabbbbbbbbaaaaaaaabbbbbbbbaaaaaaaabbbbbbbbaaaaaaaa",
"bbbbbbbbaaaaaaaabbbbbbbbaaaaaaaabbbbbbbbaaaaaaaabbbbbbbbaaaaaaaa",
"bbbbbbbbaaaaaaaabbbbbbbbaaaaaaaabbbbbbbbaaaaaaaabbbbbbbbaaaaaaaa",
"bbbbbbbbaaaaaaaabbbbbbbbaaaaaaaabbbbbbbbaaaaaaaabbbbbbbbaaaaaaaa",
"bbbbbbbbaaaaaaaabbbbbbbbaaaaaaaabbbbbbbbaaaaaaaabbbbbbbbaaaaaaaa",
"bbbbbbbbaaaaaaaabbbbbbbbaaaaaaaabbbbbbbbaaaaaaaabbbbbbbbaaaaaaaa",
"bbbbbbbbaaaaaaaabbbbbbbbaaaaaaaabbbbbbbbaaaaaaaabbbbbbbbaaaaaaaa"
};
